X:23
M:2/4
L:1/8
Q:1/4=140
K:D
|:a2 fd|dcBA|Bcde|fd d/e/f/g/|a2 fd|dcBA|Bdce|d>e d2:|
|:D2 EF|G/F/G/A/ B2|AFED "G. Fl."|[Dd][cC][BB,][AA,]|\

